X: 16
T: The Pigeon On The Gate
R: reel
M: 4/4
L: 1/8
K: Edor
BEE2 BdcA | BABd dAFA | D2FD ADFD | FA3 BAFA|
BE3 dE3 | BABd dAFA | D2FA dfec | dBAF E2FA :|
Beed efed | B/c/def gfed | BABc dfdB | A2FA DAFA|
Beed efed | B/c/def gefg | afge fdef | dBAF E3 A :|


Tune 517	Setting 13454

